mobile/24/svg/home-24.svg

<svg width="24" height="24" viewBox="0 0 24 24" fill="none" xmlns="http://www.w3.org/2000/svg">
<path fill-rule="evenodd" clip-rule="evenodd" d="M2.4453 11.7801L3.25 11.0822V18.5C3.25 19.8803 4.36975 21 5.75 21H18.25C19.6302 21 20.75 19.8803 20.75 18.5V11.0813L21.5557 11.7801L22.7023 10.458L13.6603 2.61601C12.7078 1.79019 11.2931 1.78937 10.3407 2.61601L1.29871 10.458L2.4453 11.7801ZM12.5137 3.93806C12.2184 3.6821 11.7813 3.68274 11.4877 3.93771L5 9.56441V18.5C5 18.9138 5.33625 19.25 5.75 19.25H8.25V14.75C8.25 13.3698 9.36975 12.25 10.75 12.25H13.25C14.6302 12.25 15.75 13.3698 15.75 14.75V19.25H18.25C18.6637 19.25 19 18.9138 19 18.5V9.56354L12.5137 3.93806ZM14 19.25V14.75C14 14.3363 13.6638 14 13.25 14H10.75C10.3362 14 10 14.3363 10 14.75V19.25H14Z" fill="black"/>
</svg>

<svg width="24" height="24" fill="none" xmlns="http://www.w3.org/2000/svg"><path fill-rule="evenodd" clip-rule="evenodd" d="m2.445 11.78.805-.698V18.5a2.5 2.5 0 0 0 2.5 2.5h12.5a2.5 2.5 0 0 0 2.5-2.5v-7.419l.806.7 1.146-1.323-9.042-7.842a2.533 2.533 0 0 0-3.32 0L1.3 10.458l1.146 1.322zm10.069-7.842a.783.783 0 0 0-1.026 0L5 9.564V18.5c0 .414.336.75.75.75h2.5v-4.5a2.5 2.5 0 0 1 2.5-2.5h2.5a2.5 2.5 0 0 1 2.5 2.5v4.5h2.5a.75.75 0 0 0 .75-.75V9.564l-6.486-5.626zM14 19.25v-4.5a.75.75 0 0 0-.75-.75h-2.5a.75.75 0 0 0-.75.75v4.5h4z" fill="#000"/></svg>
